other/myuu.svg

<?xml version="1.0" encoding="UTF-8" standalone="no"?>
<svg
   viewBox="0 0 48 48"
   version="1.1"
   id="svg8"
   xml:space="preserve"
   xmlns="http://www.w3.org/2000/svg"
   xmlns:svg="http://www.w3.org/2000/svg"><defs
     id="defs4"><style
       id="style2">.a{fill:none;stroke:#fff;stroke-linecap:round;stroke-linejoin:round;}</style></defs><path
     style="font-variation-settings:normal;opacity:1;vector-effect:none;fill:none;fill-opacity:1;stroke:#ffffff;stroke-width:1;stroke-linecap:round;stroke-linejoin:round;stroke-miterlimit:4;stroke-dasharray:none;stroke-dashoffset:0;stroke-opacity:1;-inkscape-stroke:none;stop-color:#000000;stop-opacity:1"
     d="M 24,15 26.481107,2.64364 26.212813,15.27627 31.487577,3.8459386 28.215391,16.04824 35.998061,6.1591331 30.048644,17.335624 40.11758,9.770678 l -8.557505,9.346161 11.407926,-5.239335 -10.539815,6.965649 12.47314,-1.881462 -11.962971,3.986738 12.56157,0.994873 -12.567034,1.15372 11.978022,3.90135 -12.558912,-1.645152 10.685351,6.638238 -11.711636,-4.763276 8.690489,9.11515 -10.125429,-7.539013 6.309051,10.89919 -8.212043,-9.635202 3.616439,12.042034 -5.5988,-11.336614 0.525775,12.576754 L 23.810568,32.998006 21.450554,45.34831 21.938646,32.760755 16.602209,44.187191 19.832456,31.97694 11.9027,41.773726 18.010898,30.717935 8.1138151,38.487206 16.561242,29.066051 5.1016925,34.252023 15.55384,27.108438 3.1640289,29.302104 15.075948,25.166749 2.5,24 15.043425,23.116957 3.102349,18.946468 15.537259,20.936993 4.8715456,14.184083 16.565287,18.928014 7.8504214,9.8070049 17.90625,17.21875 11.733158,6.3428601 19.703678,16.091674 16.348566,3.9075744 21.71875,15.0625 21.419458,2.6554268 Z"
     id="path4237" /><circle
     style="font-variation-settings:normal;opacity:1;vector-effect:none;fill:none;fill-opacity:1;fill-rule:evenodd;stroke:#ffffff;stroke-width:1;stroke-linecap:round;stroke-linejoin:round;stroke-miterlimit:4;stroke-dasharray:none;stroke-dashoffset:0;stroke-opacity:1;-inkscape-stroke:none;stop-color:#000000;stop-opacity:1"
     id="path4239"
     cx="24"
     cy="24"
     r="9" /><path
     style="font-variation-settings:normal;opacity:1;vector-effect:none;fill:none;fill-opacity:1;stroke:#ffffff;stroke-width:1;stroke-linecap:round;stroke-linejoin:round;stroke-miterlimit:4;stroke-dasharray:none;stroke-dashoffset:0;stroke-opacity:1;-inkscape-stroke:none;stop-color:#000000;stop-opacity:1"
     d="m 20.5625,20.75 h 6.75 l 0.03125,4.75 c 0.005,0.765903 -0.365104,2 -1.4375,2 H 24.8125 L 23.90625,28.21875 23.1875,27.5 h -1.28125 c -1.100461,0 -1.307979,-0.919371 -1.3125,-1.65625 z"
     id="path4241" /><path
     style="font-variation-settings:normal;opacity:1;vector-effect:none;fill:none;fill-opacity:1;stroke:#ffffff;stroke-width:1;stroke-linecap:round;stroke-linejoin:round;stroke-miterlimit:4;stroke-dasharray:none;stroke-dashoffset:0;stroke-opacity:1;-inkscape-stroke:none;stop-color:#000000;stop-opacity:1"
     d="m 20.5625,20.75 6.21439,6.381256"
     id="path4243" /></svg>

<?xml version="1.0" encoding="UTF-8"?><svg id="a" xmlns="http://www.w3.org/2000/svg" viewBox="0 0 48 48"><defs><style>.f{fill:none;stroke:#fff;stroke-linecap:round;stroke-linejoin:round;}</style></defs><path id="b" class="f" d="m24,15.0029l2.4811-12.3564-.2683,12.6327,5.2748-11.4304-3.2722,12.2023,7.7827-9.8891-5.9494,11.1765,10.069-7.565-8.5575,9.3462,11.4079-5.2393-10.5398,6.9657,12.4732-1.8815-11.963,3.9867,12.5616.9949-12.5671,1.1537,11.978,3.9014-12.5589-1.6452,10.6854,6.6382-11.7117-4.7633,8.6905,9.1152-10.1254-7.539,6.3091,10.8992-8.2121-9.6352,3.6164,12.0421-5.5988-11.3366.5258,12.5768-2.7206-12.3525-2.36,12.3503.4881-12.5876-5.3364,11.4265,3.2303-12.2103-7.9298,9.7968,6.1082-11.0558-9.8971,7.7693,8.4474-9.4212-11.4596,5.186,10.4522-7.1436-12.3898,2.1937,11.9119-4.1354-12.576-1.1668,12.5434-.883-11.9411-4.1705,12.4349,1.9905-10.6657-6.7529,11.6938,4.7439L7.8504,9.8099l10.0558,7.4118-6.1731-10.8759,7.9705,9.7488-3.3551-12.1841,5.3702,11.1549-.2993-12.4071,2.5805,12.3446Z"/><circle id="c" class="f" cx="24" cy="24.0029" r="9"/><path id="d" class="f" d="m20.5625,20.7529h6.75l.0313,4.75c.005.7659-.3651,2-1.4375,2h-1.0938l-.9063.7188-.7188-.7188h-1.2813c-1.1005,0-1.308-.9194-1.3125-1.6563l-.0313-5.0938Z"/><path id="e" class="f" d="m20.5625,20.7529l6.2144,6.3813"/></svg>
